; generated by Slic3r 1.3.0-dev on 2021-11-26 at 01:18:25

; external perimeters extrusion width = 0.44mm (2.58mm^3/s)
; perimeters extrusion width = 0.56mm (6.72mm^3/s)
; infill extrusion width = 0.50mm (7.31mm^3/s)
; solid infill extrusion width = 0.56mm (5.17mm^3/s)
; top infill extrusion width = 0.56mm (5.17mm^3/s)

M107
M190 S80 ; set bed temperature and wait for it to be reached
M104 S200 ; set temperature

; Filament gcode

M109 S200 ; set temperature and wait for it to be reached
G21 ; set units to millimeters
G90 ; use absolute coordinates
M82 ; use absolute distances for extrusion
G92 E0
G1 Z0.250 F7500.000
G1 E-2.00000 F2400.00000
G92 E0
G1 X106.246 Y104.820 Z0.250 F7500.000
G1 E2.00000 F2400.00000
G1 F600
G1 X107.992 Y103.382 Z0.250 E2.10494
G1 X111.153 Y102.554 Z0.250 E2.25657
G1 X112.454 Y102.554 Z0.250 E2.31692
G1 X114.681 Y102.951 Z0.250 E2.42187
G1 X116.634 Y104.092 Z0.250 E2.52681
G1 X118.072 Y105.839 Z0.250 E2.63176
G1 X118.901 Y109.000 Z0.250 E2.78338
G1 X118.901 Y111.000 Z0.250 E2.87616
G1 X118.504 Y113.227 Z0.250 E2.98111
G1 X117.362 Y115.180 Z0.250 E3.08605
G1 X115.616 Y116.618 Z0.250 E3.19100
G1 X112.454 Y117.446 Z0.250 E3.34262
G1 X111.153 Y117.446 Z0.250 E3.40297
G1 X108.926 Y117.049 Z0.250 E3.50792
G1 X106.974 Y115.908 Z0.250 E3.61286
G1 X105.536 Y114.161 Z0.250 E3.71781
G1 X104.707 Y111.000 Z0.250 E3.86943
G1 X104.707 Y109.000 Z0.250 E3.96222
G1 X105.104 Y106.773 Z0.250 E4.06716
G1 X106.216 Y104.872 Z0.250 E4.16932
G1 E2.16932 F2400.00000
G92 E0
G1 X111.403 Y109.711 Z0.250 F7500.000
G1 E2.00000 F2400.00000
G1 F2400
G1 X111.403 Y109.250 Z0.250 E2.02139
G1 X112.204 Y109.250 Z0.250 E2.05855
G1 X112.204 Y110.750 Z0.250 E2.12814
G1 X111.403 Y110.750 Z0.250 E2.16530
G1 X111.403 Y109.771 Z0.250 E2.21071
G1 X111.698 Y109.441 F7500.000
G1 Z0.450 F7500.000
G1 X111.666 Y110.153 Z0.450 F7500.000
G1 F600
G1 X111.666 Y109.677 Z0.450 E2.23119
G1 X111.972 Y109.677 Z0.450 E2.24438
G1 X111.972 Y110.323 Z0.450 E2.27214
G1 X111.666 Y110.323 Z0.450 E2.28533
G1 X111.666 Y110.213 Z0.450 E2.29004
G1 X111.209 Y110.213 Z0.450 F7500.000
G1 F600
G1 X111.209 Y109.220 Z0.450 E2.32284
G1 X112.429 Y109.220 Z0.450 E2.36315
G1 X112.429 Y110.780 Z0.450 E2.41466
G1 X111.209 Y110.780 Z0.450 E2.45497
G1 X111.209 Y110.273 Z0.450 E2.47170
G1 X111.456 Y109.899 F7500.000
G1 Z0.650 F7500.000
G1 X111.531 Y109.821 Z0.650 F7500.000
G1 F600
G1 X111.531 Y109.677 Z0.650 E2.47790
G1 X112.062 Y109.677 Z0.650 E2.50071
G1 X112.062 Y110.323 Z0.650 E2.52848
G1 X111.531 Y110.323 Z0.650 E2.55129
G1 X111.531 Y109.881 Z0.650 E2.57028
G1 X111.074 Y109.881 Z0.650 F7500.000
G1 F600
G1 X111.074 Y109.220 Z0.650 E2.59212
G1 X112.519 Y109.220 Z0.650 E2.63982
G1 X112.519 Y110.780 Z0.650 E2.69133
G1 X111.074 Y110.780 Z0.650 E2.73903
G1 X111.074 Y109.941 Z0.650 E2.76672
G1 X111.334 Y109.578 F7500.000
M106 S255
G1 Z0.850 F7500.000
G1 X112.142 Y109.819 Z0.850 F7500.000
G1 F600
G1 X112.142 Y110.323 Z0.850 E2.78837
G1 X111.403 Y110.323 Z0.850 E2.82016
G1 X111.403 Y109.677 Z0.850 E2.84792
G1 X112.142 Y109.677 Z0.850 E2.87971
G1 X112.142 Y109.759 Z0.850 E2.88324
G1 X112.599 Y109.759 Z0.850 F7500.000
G1 F600
G1 X112.599 Y110.780 Z0.850 E2.91694
G1 X110.946 Y110.780 Z0.850 E2.97153
G1 X110.946 Y109.220 Z0.850 E3.02304
G1 X112.599 Y109.220 Z0.850 E3.07763
G1 X112.599 Y109.699 Z0.850 E3.09345
G1 X112.364 Y110.083 F7500.000
G1 E1.09345 F2400.00000
G92 E0
G1 X105.444 Y109.929 Z0.850 F7500.000
G1 E2.00000 F2400.00000
G1 F600
G1 X105.444 Y110.780 Z0.850 E2.02809
G1 X105.238 Y110.780 Z0.850 E2.03489
G1 X105.238 Y109.220 Z0.850 E2.08639
G1 X105.444 Y109.220 Z0.850 E2.09318
G1 X105.444 Y109.869 Z0.850 E2.11462
G1 X105.118 Y110.161 F7500.000
G1 Z1.050 F7500.000
G1 E0.11462 F2400.00000
G92 E0
G1 X111.791 Y109.677 Z1.050 F7500.000
G1 E2.00000 F2400.00000
G1 F600
G1 X112.218 Y109.677 Z1.050 E2.01835
G1 X112.218 Y110.323 Z1.050 E2.04612
G1 X111.282 Y110.323 Z1.050 E2.08636
G1 X111.282 Y109.677 Z1.050 E2.11413
G1 X111.731 Y109.677 Z1.050 E2.13343
G1 X111.731 Y109.220 Z1.050 F7500.000
G1 F600
G1 X112.675 Y109.220 Z1.050 E2.16460
G1 X112.675 Y110.780 Z1.050 E2.21610
G1 X110.825 Y110.780 Z1.050 E2.27719
G1 X110.825 Y109.220 Z1.050 E2.32869
G1 X111.671 Y109.220 Z1.050 E2.35663
G1 X112.037 Y109.477 F7500.000
G1 E0.35663 F2400.00000
G92 E0
G1 X105.100 Y110.053 Z1.050 F7500.000
G1 E2.00000 F2400.00000
G1 F600
G1 X105.100 Y109.677 Z1.050 E2.01617
G1 X105.206 Y109.677 Z1.050 E2.02073
G1 X105.206 Y110.323 Z1.050 E2.04850
G1 X105.100 Y110.323 Z1.050 E2.05306
G1 X105.100 Y110.113 Z1.050 E2.06208
G1 X104.643 Y110.113 Z1.050 F7500.000
G1 F600
G1 X104.643 Y109.220 Z1.050 E2.09157
G1 X105.663 Y109.220 Z1.050 E2.12526
G1 X105.663 Y110.780 Z1.050 E2.17676
G1 X104.643 Y110.780 Z1.050 E2.21045
G1 X104.643 Y110.173 Z1.050 E2.23049
G1 X104.905 Y109.811 F7500.000
G1 Z1.250 F7500.000
G1 E0.23049 F2400.00000
G92 E0
G1 X111.641 Y110.323 Z1.250 F7500.000
G1 E2.00000 F2400.00000
G1 F600
G1 X111.170 Y110.323 Z1.250 E2.02028
G1 X111.170 Y109.677 Z1.250 E2.04805
G1 X112.289 Y109.677 Z1.250 E2.09620
G1 X112.289 Y110.323 Z1.250 E2.12397
G1 X111.701 Y110.323 Z1.250 E2.14925
G1 X111.701 Y110.780 Z1.250 F7500.000
G1 F600
G1 X110.713 Y110.780 Z1.250 E2.18190
G1 X110.713 Y109.220 Z1.250 E2.23341
G1 X112.746 Y109.220 Z1.250 E2.30056
G1 X112.746 Y110.780 Z1.250 E2.35207
G1 X111.761 Y110.780 Z1.250 E2.38460
G1 X111.401 Y110.516 F7500.000
G1 E0.38460 F2400.00000
G92 E0
G1 X105.411 Y110.097 Z1.250 F7500.000
G1 E2.00000 F2400.00000
G1 F600
G1 X105.411 Y110.323 Z1.250 E2.00970
G1 X104.896 Y110.323 Z1.250 E2.03186
G1 X104.896 Y109.677 Z1.250 E2.05963
G1 X105.411 Y109.677 Z1.250 E2.08179
G1 X105.411 Y110.037 Z1.250 E2.09727
G1 X105.868 Y110.037 Z1.250 F7500.000
G1 F600
G1 X105.868 Y110.780 Z1.250 E2.12180
G1 X104.438 Y110.780 Z1.250 E2.16900
G1 X104.438 Y109.220 Z1.250 E2.22050
G1 X105.868 Y109.220 Z1.250 E2.26770
G1 X105.868 Y109.977 Z1.250 E2.29271
G1 X105.611 Y110.344 F7500.000
G1 Z1.450 F7500.000
G1 E0.29271 F2400.00000
G92 E0
G1 X111.067 Y109.807 Z1.450 F7500.000
G1 E2.00000 F2400.00000
G1 F600
G1 X111.067 Y109.677 Z1.450 E2.00559
G1 X112.352 Y109.677 Z1.450 E2.06086
G1 X112.352 Y110.323 Z1.450 E2.08863
G1 X111.067 Y110.323 Z1.450 E2.14389
G1 X111.067 Y109.867 Z1.450 E2.16348
G1 X110.610 Y109.867 Z1.450 F7500.000
G1 F600
G1 X110.610 Y109.220 Z1.450 E2.18485
G1 X112.809 Y109.220 Z1.450 E2.25747
G1 X112.809 Y110.780 Z1.450 E2.30898
G1 X110.610 Y110.780 Z1.450 E2.38160
G1 X110.610 Y109.927 Z1.450 E2.40976
G1 X110.853 Y109.550 F7500.000
G1 E0.40976 F2400.00000
G92 E0
G1 X104.852 Y109.922 Z1.450 F7500.000
G1 E2.00000 F2400.00000
G1 F600
G1 X104.852 Y109.677 Z1.450 E2.01051
G1 X105.602 Y109.677 Z1.450 E2.04275
G1 X105.602 Y110.323 Z1.450 E2.07052
G1 X104.852 Y110.323 Z1.450 E2.10276
G1 X104.852 Y109.982 Z1.450 E2.11744
G1 X104.395 Y109.982 Z1.450 F7500.000
G1 F600
G1 X104.395 Y109.220 Z1.450 E2.14258
G1 X106.059 Y109.220 Z1.450 E2.19753
G1 X106.059 Y110.780 Z1.450 E2.24903
G1 X104.395 Y110.780 Z1.450 E2.30398
G1 X104.395 Y110.042 Z1.450 E2.32836
G1 X104.644 Y109.669 F7500.000
G1 Z1.650 F7500.000
G1 E0.32836 F2400.00000
G92 E0
G1 X111.537 Y110.323 Z1.650 F7500.000
G1 E2.00000 F2400.00000
G1 F600
G1 X110.972 Y110.323 Z1.650 E2.02429
G1 X110.972 Y109.677 Z1.650 E2.05206
G1 X112.409 Y109.677 Z1.650 E2.11388
G1 X112.409 Y110.323 Z1.650 E2.14165
G1 X111.597 Y110.323 Z1.650 E2.17660
G1 X111.597 Y110.780 Z1.650 F7500.000
G1 F600
G1 X110.515 Y110.780 Z1.650 E2.21233
G1 X110.515 Y109.220 Z1.650 E2.26383
G1 X112.867 Y109.220 Z1.650 E2.34149
G1 X112.867 Y110.780 Z1.650 E2.39300
G1 X111.657 Y110.780 Z1.650 E2.43295
G1 X111.304 Y110.507 F7500.000
G1 E0.43295 F2400.00000
G92 E0
G1 X104.895 Y109.677 Z1.650 F7500.000
G1 E2.00000 F2400.00000
G1 F600
G1 X105.779 Y109.677 Z1.650 E2.03798
G1 X105.779 Y110.323 Z1.650 E2.06575
G1 X104.814 Y110.323 Z1.650 E2.10724
G1 X104.814 Y109.677 Z1.650 E2.13501
G1 X104.835 Y109.677 Z1.650 E2.13595
G1 X104.835 Y109.220 Z1.650 F7500.000
G1 F600
G1 X106.236 Y109.220 Z1.650 E2.18219
G1 X106.236 Y110.780 Z1.650 E2.23370
G1 X104.356 Y110.780 Z1.650 E2.29575
G1 X104.356 Y109.220 Z1.650 E2.34725
G1 X104.775 Y109.220 Z1.650 E2.36109
G1 X105.160 Y109.453 F7500.000
G1 Z1.850 F7500.000
G1 E0.36109 F2400.00000
G92 E0
G1 X112.240 Y109.677 Z1.850 F7500.000
G1 E2.00000 F2400.00000
G1 F600
G1 X112.461 Y109.677 Z1.850 E2.00952
G1 X112.461 Y110.323 Z1.850 E2.03729
G1 X110.885 Y110.323 Z1.850 E2.10506
G1 X110.885 Y109.677 Z1.850 E2.13283
G1 X112.180 Y109.677 Z1.850 E2.18851
G1 X112.180 Y109.220 Z1.850 F7500.000
G1 F600
G1 X112.918 Y109.220 Z1.850 E2.21289
G1 X112.918 Y110.780 Z1.850 E2.26440
G1 X110.428 Y110.780 Z1.850 E2.34663
G1 X110.428 Y109.220 Z1.850 E2.39814
G1 X112.120 Y109.220 Z1.850 E2.45401
G1 X112.457 Y109.508 F7500.000
G1 E0.45401 F2400.00000
G92 E0
G1 X104.778 Y110.065 Z1.850 F7500.000
G1 E2.00000 F2400.00000
G1 F600
G1 X104.778 Y109.677 Z1.850 E2.01669
G1 X105.943 Y109.677 Z1.850 E2.06677
G1 X105.943 Y110.323 Z1.850 E2.09454
G1 X104.778 Y110.323 Z1.850 E2.14463
G1 X104.778 Y110.125 Z1.850 E2.15313
G1 X104.321 Y110.125 Z1.850 F7500.000
G1 F600
G1 X104.321 Y109.220 Z1.850 E2.18302
G1 X106.400 Y109.220 Z1.850 E2.25167
G1 X106.400 Y110.780 Z1.850 E2.30317
G1 X104.321 Y110.780 Z1.850 E2.37182
G1 X104.321 Y110.185 Z1.850 E2.39146
G1 X104.555 Y109.801 F7500.000
G1 Z2.050 F7500.000
G1 E0.39146 F2400.00000
G92 E0
G1 X110.807 Y109.948 Z2.050 F7500.000
G1 E2.00000 F2400.00000
G1 F600
G1 X110.807 Y109.677 Z2.050 E2.01165
G1 X112.506 Y109.677 Z2.050 E2.08472
G1 X112.506 Y110.323 Z2.050 E2.11249
G1 X110.807 Y110.323 Z2.050 E2.18556
G1 X110.807 Y110.008 Z2.050 E2.19910
G1 X110.349 Y110.008 Z2.050 F7500.000
G1 F600
G1 X110.349 Y109.220 Z2.050 E2.22512
G1 X112.963 Y109.220 Z2.050 E2.31141
G1 X112.963 Y110.780 Z2.050 E2.36292
G1 X110.349 Y110.780 Z2.050 E2.44922
G1 X110.349 Y110.068 Z2.050 E2.47273
G1 X110.582 Y109.682 F7500.000
G1 E0.47273 F2400.00000
G92 E0
G1 X106.096 Y109.945 Z2.050 F7500.000
G1 E2.00000 F2400.00000
G1 F600
G1 X106.096 Y110.323 Z2.050 E2.01626
G1 X104.751 Y110.323 Z2.050 E2.07409
G1 X104.751 Y109.677 Z2.050 E2.10186
G1 X106.096 Y109.677 Z2.050 E2.15970
G1 X106.096 Y109.885 Z2.050 E2.16862
G1 X106.553 Y109.885 Z2.050 F7500.000
G1 F600
G1 X106.553 Y110.780 Z2.050 E2.19818
G1 X104.294 Y110.780 Z2.050 E2.27278
G1 X104.294 Y109.220 Z2.050 E2.32428
G1 X106.553 Y109.220 Z2.050 E2.39888
G1 X106.553 Y109.825 Z2.050 E2.41885
G1 X106.321 Y110.211 F7500.000
G1 Z2.250 F7500.000
G1 E0.41885 F2400.00000
G92 E0
G1 X118.240 Y109.890 Z2.250 F7500.000
G1 E2.00000 F2400.00000
G1 F600
G1 X118.240 Y110.780 Z2.250 E2.02938
G1 X117.872 Y110.780 Z2.250 E2.04154
G1 X117.872 Y109.220 Z2.250 E2.09305
G1 X118.240 Y109.220 Z2.250 E2.10520
G1 X118.240 Y109.830 Z2.250 E2.12535
G1 X117.932 Y110.145 F7500.000
G1 E0.12535 F2400.00000
G92 E0
G1 X112.543 Y110.270 Z2.250 F7500.000
G1 E2.00000 F2400.00000
G1 F600
G1 X112.543 Y110.323 Z2.250 E2.00226
G1 X110.738 Y110.323 Z2.250 E2.07990
G1 X110.738 Y109.677 Z2.250 E2.10767
G1 X112.543 Y109.677 Z2.250 E2.18530
G1 X112.543 Y110.210 Z2.250 E2.20823
G1 X113.001 Y110.210 Z2.250 F7500.000
G1 F600
G1 X113.001 Y110.780 Z2.250 E2.22704
G1 X110.281 Y110.780 Z2.250 E2.31684
G1 X110.281 Y109.220 Z2.250 E2.36835
G1 X113.001 Y109.220 Z2.250 E2.45815
G1 X113.001 Y110.150 Z2.250 E2.48887
G1 X112.762 Y110.531 F7500.000
G1 E0.48887 F2400.00000
G92 E0
G1 X106.236 Y110.222 Z2.250 F7500.000
G1 E2.00000 F2400.00000
G1 F600
G1 X106.236 Y110.323 Z2.250 E2.00435
G1 X104.727 Y110.323 Z2.250 E2.06926
G1 X104.727 Y109.677 Z2.250 E2.09703
G1 X106.236 Y109.677 Z2.250 E2.16194
G1 X106.236 Y110.162 Z2.250 E2.18278
G1 X106.693 Y110.162 Z2.250 F7500.000
G1 F600
G1 X106.693 Y110.780 Z2.250 E2.20319
G1 X104.269 Y110.780 Z2.250 E2.28322
G1 X104.269 Y109.220 Z2.250 E2.33473
G1 X106.693 Y109.220 Z2.250 E2.41476
G1 X106.693 Y110.102 Z2.250 E2.44387
G1 X106.452 Y110.481 F7500.000
G1 Z2.450 F7500.000
G1 E0.44387 F2400.00000
G92 E0
G1 X118.014 Y110.056 Z2.450 F7500.000
G1 E2.00000 F2400.00000
G1 F600
G1 X118.014 Y109.677 Z2.450 E2.01630
G1 X118.128 Y109.677 Z2.450 E2.02123
G1 X118.128 Y110.323 Z2.450 E2.04900
G1 X118.014 Y110.323 Z2.450 E2.05393
G1 X118.014 Y110.116 Z2.450 E2.06282
G1 X117.556 Y110.116 Z2.450 F7500.000
G1 F600
G1 X117.556 Y109.220 Z2.450 E2.09241
G1 X118.585 Y109.220 Z2.450 E2.12638
G1 X118.585 Y110.780 Z2.450 E2.17789
G1 X117.556 Y110.780 Z2.450 E2.21186
G1 X117.556 Y110.176 Z2.450 E2.23179
G1 X117.819 Y109.814 F7500.000
G1 E0.23179 F2400.00000
G92 E0
G1 X112.573 Y109.940 Z2.450 F7500.000
G1 E2.00000 F2400.00000
G1 F600
G1 X112.573 Y110.323 Z2.450 E2.01648
G1 X110.679 Y110.323 Z2.450 E2.09793
G1 X110.679 Y109.677 Z2.450 E2.12570
G1 X112.573 Y109.677 Z2.450 E2.20715
G1 X112.573 Y109.880 Z2.450 E2.21586
G1 X113.030 Y109.880 Z2.450 F7500.000
G1 F600
G1 X113.030 Y110.780 Z2.450 E2.24559
G1 X110.222 Y110.780 Z2.450 E2.33832
G1 X110.222 Y109.220 Z2.450 E2.38983
G1 X113.030 Y109.220 Z2.450 E2.48256
G1 X113.030 Y109.820 Z2.450 E2.50237
G1 X112.804 Y110.210 F7500.000
G1 E0.50237 F2400.00000
G92 E0
G1 X104.793 Y109.677 Z2.450 F7500.000
G1 E2.00000 F2400.00000
G1 F600
G1 X106.364 Y109.677 Z2.450 E2.06757
G1 X106.364 Y110.323 Z2.450 E2.09534
G1 X104.708 Y110.323 Z2.450 E2.16657
G1 X104.708 Y109.677 Z2.450 E2.19434
G1 X104.733 Y109.677 Z2.450 E2.19543
G1 X104.733 Y109.220 Z2.450 F7500.000
G1 F600
G1 X106.822 Y109.220 Z2.450 E2.26439
G1 X106.822 Y110.780 Z2.450 E2.31589
G1 X104.251 Y110.780 Z2.450 E2.40078
G1 X104.251 Y109.220 Z2.450 E2.45229
G1 X104.673 Y109.220 Z2.450 E2.46623
G1 X105.058 Y109.454 F7500.000
G1 Z2.650 F7500.000
G1 E0.46623 F2400.00000
G92 E0
G1 X118.341 Y110.323 Z2.650 F7500.000
G1 E2.00000 F2400.00000
G1 F600
G1 X117.727 Y110.323 Z2.650 E2.02640
G1 X117.727 Y109.677 Z2.650 E2.05417
G1 X118.460 Y109.677 Z2.650 E2.08567
G1 X118.460 Y110.323 Z2.650 E2.11344
G1 X118.401 Y110.323 Z2.650 E2.11597
G1 X118.401 Y110.780 Z2.650 F7500.000
G1 F600
G1 X117.270 Y110.780 Z2.650 E2.15331
G1 X117.270 Y109.220 Z2.650 E2.20482
G1 X118.917 Y109.220 Z2.650 E2.25920
G1 X118.917 Y110.780 Z2.650 E2.31070
G1 X118.461 Y110.780 Z2.650 E2.32575
G1 X118.078 Y110.544 F7500.000
G1 E0.32575 F2400.00000
G92 E0
G1 X112.313 Y110.323 Z2.650 F7500.000
G1 E2.00000 F2400.00000
G1 F600
G1 X110.632 Y110.323 Z2.650 E2.07227
G1 X110.632 Y109.677 Z2.650 E2.10004
G1 X112.595 Y109.677 Z2.650 E2.18441
G1 X112.595 Y110.323 Z2.650 E2.21218
G1 X112.373 Y110.323 Z2.650 E2.22170
G1 X112.373 Y110.780 Z2.650 F7500.000
G1 F600
G1 X110.175 Y110.780 Z2.650 E2.29427
G1 X110.175 Y109.220 Z2.650 E2.34578
G1 X113.052 Y109.220 Z2.650 E2.44076
G1 X113.052 Y110.780 Z2.650 E2.49226
G1 X112.433 Y110.780 Z2.650 E2.51268
G1 X112.057 Y110.535 F7500.000
G1 E0.51268 F2400.00000
G92 E0
G1 X105.423 Y110.323 Z2.650 F7500.000
G1 E2.00000 F2400.00000
G1 F600
G1 X104.696 Y110.323 Z2.650 E2.03129
G1 X104.696 Y109.677 Z2.650 E2.05906
G1 X106.478 Y109.677 Z2.650 E2.13570
G1 X106.478 Y110.323 Z2.650 E2.16347
G1 X105.483 Y110.323 Z2.650 E2.20625
G1 X105.483 Y110.780 Z2.650 F7500.000
G1 F600
G1 X104.239 Y110.780 Z2.650 E2.24735
G1 X104.239 Y109.220 Z2.650 E2.29886
G1 X106.935 Y109.220 Z2.650 E2.38790
G1 X106.935 Y110.780 Z2.650 E2.43941
G1 X105.543 Y110.780 Z2.650 E2.48537
G1 X105.197 Y110.501 F7500.000
G1 Z2.850 F7500.000
G1 E0.48537 F2400.00000
G92 E0
G1 X117.466 Y110.198 Z2.850 F7500.000
G1 E2.00000 F2400.00000
G1 F600
G1 X117.466 Y109.677 Z2.850 E2.02238
G1 X118.511 Y109.677 Z2.850 E2.06730
G1 X118.511 Y110.323 Z2.850 E2.09507
G1 X117.466 Y110.323 Z2.850 E2.14000
G1 X117.466 Y110.258 Z2.850 E2.14280
G1 X117.009 Y110.258 Z2.850 F7500.000
G1 F600
G1 X117.009 Y109.220 Z2.850 E2.17706
G1 X118.968 Y109.220 Z2.850 E2.24174
G1 X118.968 Y110.780 Z2.850 E2.29325
G1 X117.009 Y110.780 Z2.850 E2.35793
G1 X117.009 Y110.318 Z2.850 E2.37319
G1 X117.238 Y109.930 F7500.000
G1 E0.37319 F2400.00000
G92 E0
G1 X112.510 Y109.677 Z2.850 F7500.000
G1 E2.00000 F2400.00000
G1 F600
G1 X112.606 Y109.677 Z2.850 E2.00413
G1 X112.606 Y110.323 Z2.850 E2.03190
G1 X110.599 Y110.323 Z2.850 E2.11818
G1 X110.599 Y109.677 Z2.850 E2.14595
G1 X112.450 Y109.677 Z2.850 E2.22552
G1 X112.450 Y109.220 Z2.850 F7500.000
